X: 14861
T: Garrett Barry's
R: reel
M: 4/4
K: Adorian
|:G3B d3e|edBe dBAB|G3B dedB|AEGE DGBA|
G3B dG (3Bcd|edBA G2 (3Bcd|edcB cdef|1 (3gfe dB AGEF:|2 (3gfe dB AGef||
|:g3b afge|dBAB G2 (3Bcd|g3f gedg|ea a2 ageg|
b3g afge|dBAB G2 (3Bcd|edcB cdef|1 (3gfe dB AGef:|2 (3gfe dB AGEF||

